static/assets/img/icons/theme/code/puzzle.svg

<svg height="24" viewBox="0 0 24 24" width="24" xmlns="http://www.w3.org/2000/svg"><g fill="none" fill-rule="evenodd"><path d="m0 0h24v24h-24z" opacity="0"/><path d="m19 11h1c1.6568542 0 3 1.3431458 3 3s-1.3431458 3-3 3h-1v3c0 1.1045695-.8954305 2-2 2h-12c-1.1045695 0-2-.8954305-2-2v-3h2c1.65685425 0 3-1.3431458 3-3s-1.34314575-3-3-3h-2v-3c0-1.1045695.8954305-2 2-2h3v-1c0-1.65685425 1.34314575-3 3-3 1.6568542 0 3 1.34314575 3 3v1h3c1.1045695 0 2 .8954305 2 2z" fill="#000" opacity=".3"/></g></svg>

<svg width="24px" height="24px" viewBox="0 0 24 24" version="1.1" xmlns="http://www.w3.org/2000/svg" xmlns:xlink="http://www.w3.org/1999/xlink">
    <title>Icon For Puzzle</title>
    <g stroke="none" stroke-width="1" fill="none" fill-rule="evenodd">
        <rect opacity="0" x="0" y="0" width="24" height="24"></rect>
        <path d="M19,11 L20,11 C21.6568542,11 23,12.3431458 23,14 C23,15.6568542 21.6568542,17 20,17 L19,17 L19,20 C19,21.1045695 18.1045695,22 17,22 L5,22 C3.8954305,22 3,21.1045695 3,20 L3,17 L5,17 C6.65685425,17 8,15.6568542 8,14 C8,12.3431458 6.65685425,11 5,11 L3,11 L3,8 C3,6.8954305 3.8954305,6 5,6 L8,6 L8,5 C8,3.34314575 9.34314575,2 11,2 C12.6568542,2 14,3.34314575 14,5 L14,6 L17,6 C18.1045695,6 19,6.8954305 19,8 L19,11 Z" fill="#000000" opacity="0.3"></path>
    </g>
</svg>
